!!!ONB: MCCC : IJH0414_04 : Extracted Monophonic Melody
!!!COM: Haydn, Joseph
!!!OPR: String Quartet in B-flat major
!!!OMV: 4
!!!SCT: Hob.III:78 ; Op.76 No.4
!!!ODT: 1796///
**kern
*thru
*k[b-e-]
*B-:
*clefF
*M2/2
8ff
8ee-
=1
4dd
4ee-
4cc
8dd
8cc
=2
4b-
4cc
4f
8g
8a
=3
4b-
4cc
4dd
4gg
=4
8cc
8b-
8cc
8dd
4cc
8ff
8ee-
=5
4dd
4ee-
4cc
8dd
8cc
=6
4b-
4cc
4f
8g
8a
=7
4b-
4bb-
2cc
=8
4b-
4f
4d
8a
8b-
=9
4cc
4dd
4ee-
8b-
8cc
=10
4dd
4ee-
4ff
8gg
8aa
=11
4bb-
4ddd
2ff#
=12
2.gg
8ff
8gg
=13
4aa-
8gg
8ff
4ee-
4ff
=14
4gg
8ff
8ee-
4dd
4ee-
=15
4ff
8ee-
8dd
4cc
4dd
=16
8ee
8ff
8gg
8aa
4bb-
4ee
=17
4ff
4ee
4ff
4ee
=18
4ff
4ee
4ff
8a
8b-
=19
8cc
8a
8cc
8dd
8ee-
8cc
8ee-
8ff
=20
2.gg
8ff
8ee-
=21
2.gg
8ff
8ee-
=22
8gg
8ff
8ee-
8gg
8ff
8ee-
8gg
8ff
=23
8ee-
8gg
8ff
8ee-
8gg
8ff
8ee-
8gg
=24
8ff
8ee-
8gg
8ff
8ee-
8gg
8ff
8ee-
=25
4dd
4ee-
4cc
8dd
8cc
=26
4b-
4cc
4f
8g
8a
=27
4b-
4cc
4dd
4gg
=28
8cc
8b-
8cc
8dd
4cc
4r
=29
8gg
8ff
4ee-
4ff
4dd
=30
8ee-
8dd
4cc
4dd
4b-
=31
8cc
8b-
4a
4b-
4ee-
=32
4dd
4gg
4ff
4aa-
=33
4gg
4bb-
2cc
=34
4b-
2r
8ff
8bb-
=35
8ddd-
8bb-
8aa
8ccc
4bb-
8b-
8gg-
=36
8ff
8b-
8a
8ee-
4dd-
4dd
=37
4ee-
4ff
4gg-
4cc
=38
4dd-
4ee-
4ff
4a-
=39
4a-
4a-
4a-
4a-
=40
4.a-
8g-
4f
4b-
=41
4a-
4b-
4a-
8gg-
8ee-
=42
4dd-
4ddd-
4r
4gg-
=43
4ff
4gg-
4ff
4aa-
=44
4gg-
4aa-
4gg-
4bb-
=45
4aa
4bb-
4aa
4ddd-
=46
4ccc
4ddd-
4ccc
8bb-
8ee
=47
8ff
8cc
8bb-
8ee
8ff
8cc
8bb-
8ee
=48
8ff
8cc
8ff
8cc
4ff
8ff
8bb-
=49
8ddd-
8bb-
8aa
8ccc
4bb-
8b-
8gg-
=50
8ff
8b-
8a
8ee-
4dd-
4dd
=51
4ee-
4ff
4gg-
4gg-
=52
2A[
8A]
8gg-
8ff
8ee-
=53
8dd-
8ddd-
8ccc
8bb-
8aa
8ggg-
8fff
8eee-
=54
4ddd-
4bbb-
4bbb-
4bbb-
=55
4e-
4r
4f
4r
=56
4B-
2r
4gg-
=57
4ff
4gg-
4ff
4aa-
=58
4gg-
4aa-
4gg-
4bb-
=59
4aa
4bb-
4aa
4ddd-
=60
4ccc
4ddd-
4ccc
8bb-
8ee
=61
8ff
8cc
8bb-
8ee
8ff
8cc
8bb-
8ee
=62
8ff
8cc
8ff
8cc
4ff
8ff
8bb-
=63
8ddd-
8bb-
8aa
8ccc
4bb-
8b-
8gg-
=64
8ff
8b-
8a
8ee-
4dd-
4dd
=65
4ee-
4ff
4gg-
4gg-
=66
2.A
8a
8b-
=67
4cc
8cc
8dd-
4ee-
8ee-
8ff
=68
2.gg-
8ee-
8ff
=69
4gg-
8gg-
8ff
4ee-
8ee-
8ff
=70
4gg-
8gg-
8ff
4ee-
8ee-
8ff
=71
4gg-
8gg-
8ff
4ee-
8ee-
8ff
=72
4gg-
8gg-
8ff
4ee-
8gg-
8ff
=73
4ee-
8gg-
8ff
4ee-
8gg-
8ff
=74
4ee-
8gg-
8ff
4ee-
8ff
8ee-
=75
4dd
4ee-
4cc
8dd
8cc
=76
4b-
4cc
4f
8g
8a
=77
4b-
4cc
4dd
4gg
=78
8cc
8b-
8cc
8dd
8cc
8gg
8ff
8ee-
=79
8dd
8ff
8ee-
8dd
8cc
8ee-
8dd
8cc
=80
8b-
8dd
8cc
8b-
8a-
8cc
8b-
8a-
=81
4g
4bb-
2cc
=82
4b-
4f
4d
8a
8b-
=83
4cc
4dd
4ee-
8b-
8cc
=84
4dd
4ee-
4ff
8gg
8aa
=85
4bb-
4ddd
2ff#
=86
2.gg
8ff
8gg
=87
4aa-
8gg
8ff
4ee-
4ff
=88
4gg
8ff
8ee-
4dd
4ee-
=89
4ff
8ee-
8dd
4cc
4dd
=90
8ee
8ff
8gg
8aa
4bb-
4ee
=91
4ff
4ee
4ff
4ee
=92
4ff
4ee
4ff
8a
8b-
=93
8cc
8a
8cc
8dd
8ee-
8cc
8ee-
8ff
=94
2.gg
8ff
8ee-
=95
2.gg
8ff
8ee-
=96
8gg
8ff
8ee-
8gg
8ff
8ee-
8gg
8ff
=97
8ee-
8gg
8ff
8ee-
8gg
8ff
8ee-
8gg
=98
8ff
8ee-
8gg
8ff
8ee-
8gg
8ff
8ee-
=99
4dd
4ee-
4cc
8dd
8cc
=100
4b-
4cc
4f
8g
8a
=101
4b-
4cc
4dd
4gg
=102
8cc
8b-
8cc
8dd
4cc
8r
8aa-
=103
8gg
8ff
8ee-
8gg
8ff
8ee-
8dd
8ff
=104
8ee-
8dd
8cc
8ee-
8dd
8cc
8b-
8b
=105
8cc
8b-
8a
8cc
4b-
4ee-
=106
4dd
4gg
4ff
4aa-
=107
2gg
2bb-
=108
4.r
8e
4.e
16d
16e
=109
1f
=110
2f[
8f]
8g
8f]
8e-
=111
8d
8f
8e-
8d
8c
8e-
8d
8c
=112
8B-
8d
8c
8B-
8A
8g
8f
8e-
=113
4d
2.r
=114
2r
8r
8a-
8g
8f
=115
4e-
2.r
=116
2r
8r
8G
8A
8B
=117
4c
2.r
=118
2r
8r
8g
8a
8b
=119
4cc
4.r
8f
8g
8a
=120
4b-
4.r
8dd
8ee
8ff#
=121
8gg
8ff#
8gg
8aa
8bb-
8cc
8dd
8ee
=122
8ff
8ee
8ff
8gg
4aa-
4dd
=123
4ee-
4ff
4gg
4b
=124
4cc
4dd
8ee-
8gg
8ff
8ee-
=125
8dd
8ee-
8dd
8cc
8b-
8gg
8ff
8ee-
=126
8dd
8ee-
8dd
8cc
8b-
8gg
8ff
8ee-
=127
8dd
8gg
8ff
8ee-
8dd
8gg
8ff
8ee-
=128
8dd
8gg
8ff
8ee-
8dd
8gg
8ff
8ee-
=129
8dd
8ff
8ee-
8dd
8cc
8ee-
8dd
8cc
=130
8b-
8dd
8cc
8b-
8a
8f
8g
8a
=131
8cc
8b-
8dd
8cc
8ee-
8dd
8gg
8ee-
=132
8cc
8b-
8cc
8dd
8cc
8gg
8ff
8ee-
=133
8dd
8ff
8ee-
8dd
8cc
8ee-
8dd
8cc
=134
8b-
8dd
8cc
8b-
8a-
8cc
8b-
8a-
=135
4g
4bb-
2cc
=136
4b-
4.r
8dd
8cc
8b-
=137
8a
8cc
8b-
8dd
8cc
8ff
8ee
8gg
=138
8ff
8aa
8gg
8ee
8ff
8dd
8cc
8b-
=139
8a
8cc
8b-
8dd
8cc
8ff
8ee
8gg
=140
8ff
8aa
8gg
8ee
8ff
8dd
8cc
8b-
=141
8a
8cc
8b-
8dd
8cc
8ee-
8dd
8ff
=142
8ee-
8dd
8ee-
8dd
8ee-
8gg
8ff
8ee-
=143
8dd
8ff
8ee-
8dd
8cc
8ee-
8dd
8cc
=144
8b-
8dd
8cc
8b-
8a
8f
8g
8a
=145
8cc
8b-
8dd
8cc
8ee-
8dd
8gg
8ee-
=146
8cc
8b-
8cc
8dd
8cc
8gg
8ff
8ee-
=147
8dd
8ff
8ee-
8dd
8cc
8ee-
8dd
8cc
=148
8b-
8dd
8cc
8b-
8a-
8cc
8b-
8a-
=149
4g
4bb-
2cc
=150
4b-
2bb-
4bb-[
=151
4bb-]
2bb-
4bb-[
=152
8bb-]
8gg
8ff
8ee-
4dd
4ee
=153
4ff
2r
4ee
=154
4ff
2r
4aa
=155
4bb-
2r
4ddd
=156
4eee-
4r
4ggg
4r
=157
2r
8r
8aa-
8gg
8ff#
=158
8gg
8aa-
8gg
8ff#
8gg
8aa-
8gg
8ff
=159
8ee-
8dd
8ee-
8dd
8cc
8gg
8ff
8ee
=160
8ff
8gg
8ff
8ee
8ff
8gg
8ff
8ee-
=161
8dd
8ee-
8dd
8cc
8b-
8bb-
8aa
8gg
=162
8ff
8gg
8ff
8ee-
8dd
8bb-
8aa
8gg
=163
8ff
8gg
8ff
8ee-
8dd
8ddd
8ccc
8bb-
=164
8aa
8bb-
8aa
8gg
8ff
8gg
8ff
8ee-
=165
8dd
8ee-
8dd
8cc
8b-
8cc
8b-
8a
=166
8g
8a-
8g
8f
8e-
8f
8e-
8d
=167
1c
=168
4d-
4d
4e-
4e
=169
4f
8b-
8dd
4ff
4bb-
=170
4aa
4ccc
4eee-
4aa
=171
4bb-
4r
4ccc
4r
=172
4ddd
4r
4aa
4r
=173
4bb-
2.r
=174
2ff
2r
=175
2dd
2r
==
*-
